src/assets/svg/feed.svg

<svg width="34" height="34" viewBox="0 0 34 34" fill="none" xmlns="http://www.w3.org/2000/svg">
<path d="M18.6553 17.9341L13.3705 18.866L10.2435 19.4174C7.93195 19.825 5.72765 18.2815 5.32006 15.9699C4.91247 13.6584 6.45593 11.4541 8.76749 11.0465L11.8945 10.4951L17.1793 9.56327C17.2459 9.55153 17.2792 9.54566 17.311 9.53466C17.3428 9.52366 17.3726 9.50772 17.4323 9.47585L17.4323 9.47584L24.972 5.4463C25.6016 5.10982 25.9164 4.94158 26.1764 5.06804C26.4364 5.1945 26.4984 5.54602 26.6223 6.24904L28.6624 17.8188C28.7864 18.5218 28.8483 18.8733 28.6473 19.0811C28.4462 19.2888 28.0929 19.2384 27.3862 19.1375L18.923 17.9298C18.856 17.9202 18.8225 17.9154 18.7888 17.916C18.7552 17.9165 18.7219 17.9224 18.6553 17.9341Z" fill="white"/>
<path d="M15.5499 19.92L17.6022 19.5582L17.1837 21.5997L15.847 28.1207C15.8448 28.1316 15.8425 28.143 15.8401 28.1547C15.8094 28.3053 15.7669 28.5136 15.7077 28.6972C15.6331 28.9284 15.4974 29.2416 15.2097 29.5215C14.9219 29.8014 14.6052 29.9284 14.3719 29.9965C14.1868 30.0506 13.9774 30.0873 13.826 30.1139C13.8142 30.1159 13.8028 30.1179 13.7918 30.1199L12.6048 30.3292C12.584 30.3328 12.5629 30.3366 12.5415 30.3404C12.2275 30.396 11.8547 30.462 11.535 30.4709C11.164 30.4813 10.5294 30.4296 10.0178 29.9036C9.50625 29.3777 9.47211 28.7419 9.49273 28.3714C9.51049 28.052 9.58676 27.6812 9.65102 27.3689C9.6554 27.3476 9.65972 27.3266 9.66397 27.3059L11.0518 27.5903L9.66397 27.3059L10.8206 21.6633L11.014 20.7198L11.9624 20.5526L15.5499 19.92Z" fill="white" stroke="white" stroke-width="2.83333"/>
<path d="M16.9796 8.57615L16.8481 8.19568M16.9796 8.57615L16.7977 8.21452C16.8126 8.20852 16.8295 8.20211 16.8481 8.19568M16.9796 8.57615L16.9796 8.57619M16.9796 8.57615L16.9796 8.57619M16.8481 8.19568C16.882 8.18399 16.9115 8.17567 16.9334 8.1701C16.9496 8.16597 16.9617 8.16335 16.9682 8.16199C16.9715 8.1613 16.9735 8.16091 16.9735 8.16091C16.9735 8.16091 16.972 8.16121 16.9685 8.16184L16.933 8.16815L16.844 8.18384M16.8481 8.19568L16.9796 8.57619M16.844 8.18384L24.3041 4.1969C24.3219 4.18737 24.34 4.17766 24.3584 4.16782C24.6231 4.02611 24.9426 3.85504 25.2331 3.75055C25.5753 3.62742 26.1652 3.48736 26.7958 3.79411L26.1762 5.06806M16.844 8.18384L11.6483 9.09999L8.52125 9.65137C5.43918 10.1948 3.38123 13.1339 3.92468 16.216C4.46814 19.298 7.4072 21.356 10.4893 20.8125L13.6163 20.2611L18.812 19.345L27.1858 20.54C27.2058 20.5429 27.2261 20.5458 27.2468 20.5488C27.544 20.5914 27.9027 20.6429 28.2114 20.6417C28.5752 20.6404 29.1774 20.5702 29.6651 20.0663L28.6471 19.0811L29.6651 20.0663C30.1528 19.5623 30.2031 18.9581 30.1926 18.5945C30.1836 18.286 30.1204 17.9291 30.068 17.6335C30.0644 17.613 30.0608 17.5927 30.0573 17.5728L28.0173 6.00306C28.0137 5.98315 28.0102 5.9629 28.0066 5.94235C27.9547 5.64665 27.892 5.28967 27.7949 4.99667C27.6805 4.65138 27.4265 4.10087 26.7959 3.79411L26.1762 5.06806M16.844 8.18384L26.1762 5.06806M26.1762 5.06806C25.9162 4.9416 25.6014 5.10984 24.9718 5.44632L17.4321 9.47586M17.4321 9.47586L17.0187 8.65388L16.9796 8.57619M17.4321 9.47586L17.4321 9.47587C17.3724 9.50775 17.3426 9.52368 17.3108 9.53468C17.2789 9.54568 17.2456 9.55155 17.179 9.5633L11.8943 10.4951L8.76725 11.0465C6.4557 11.4541 4.91224 13.6584 5.31983 15.97C5.72742 18.2815 7.93172 19.825 10.2433 19.4174L13.3703 18.866L18.655 17.9342C18.7216 17.9224 18.7549 17.9165 18.7886 17.916C18.8223 17.9154 18.8558 17.9202 18.9227 17.9298L17.4321 9.47586ZM17.0315 8.72633L17.0314 8.7262L17.0314 8.72623L17.0315 8.72635L17.3088 9.52913L17.0315 8.72633Z" fill="white" stroke="white" stroke-width="2.83333" stroke-linejoin="round"/>
</svg>

<svg width="34" height="34" fill="none" xmlns="http://www.w3.org/2000/svg"><path d="m18.655 17.934-5.285.932-3.127.551a4.25 4.25 0 0 1-1.476-8.37l3.128-.552 5.284-.932c.067-.011.1-.017.132-.028s.062-.027.121-.06l7.54-4.029c.63-.336.944-.504 1.204-.378.26.127.322.478.446 1.181l2.04 11.57c.124.703.186 1.054-.015 1.262-.2.208-.554.157-1.26.056l-8.464-1.207a.869.869 0 0 0-.134-.014c-.034 0-.067.006-.134.018z" fill="#fff"/><path d="m15.55 19.92 2.052-.362-.418 2.042-1.337 6.52-.007.035c-.03.15-.073.359-.132.542a1.97 1.97 0 0 1-.498.825c-.288.28-.605.406-.838.475-.185.054-.395.09-.546.117a2.906 2.906 0 0 0-.034.006l-1.187.21-.064.01c-.314.056-.686.122-1.006.13-.371.011-1.006-.04-1.517-.566-.512-.526-.546-1.162-.525-1.533.017-.319.094-.69.158-1.002l.013-.063 1.388.284-1.388-.284 1.157-5.643.193-.943.948-.167 3.588-.633z" fill="#fff" stroke="#fff" stroke-width="2.833"/><path d="m16.98 8.576-.132-.38m.132.38-.182-.361.05-.02M16.848 8.197a1.081 1.081 0 0 1 .126-.035h-.006l-.035.007-.089.016m.004.012.132.38m-.136-.392 7.46-3.987.054-.03c.265-.14.585-.312.875-.416.342-.124.932-.264 1.563.043l-.62 1.274m-9.332 3.116-5.196.916-3.127.551a5.667 5.667 0 1 0 1.968 11.162l3.127-.552 5.196-.916 8.374 1.195.06.009c.298.042.657.094.965.093.364-.002.966-.072 1.454-.576l-1.018-.985 1.018.985c.488-.504.538-1.108.528-1.471a7.011 7.011 0 0 0-.125-.961l-.01-.061-2.04-11.57-.011-.06a7.012 7.012 0 0 0-.212-.946c-.115-.346-.369-.896-1-1.203l-.619 1.274m-9.332 3.116 9.332-3.116m0 0c-.26-.126-.575.042-1.204.378l-7.54 4.03m0 0-.413-.822-.04-.078m.453.9c-.06.032-.09.048-.121.059-.032.01-.065.017-.132.028l-5.285.932-3.127.552a4.25 4.25 0 0 0 1.476 8.37l3.127-.551 5.285-.932a.866.866 0 0 1 .134-.018c.033 0 .067.004.134.014l-1.49-8.454zm-.4-.75.277.803-.277-.803z" fill="#fff" stroke="#fff" stroke-width="2.833" stroke-linejoin="round"/></svg>
